svg/upload.svg

<svg xmlns="http://www.w3.org/2000/svg" viewBox="0 0 32 32" enable-background="new 0 0 32 32"><path d="M 16 3.59375 L 15.28125 4.28125 L 8.28125 11.28125 L 9.71875 12.71875 L 15 7.4375 L 15 24 L 17 24 L 17 7.4375 L 22.28125 12.71875 L 23.71875 11.28125 L 16.71875 4.28125 L 16 3.59375 z M 7 26 L 7 28 L 25 28 L 25 26 L 7 26 z" color="#000" overflow="visible" enable-background="accumulate"/></svg>

<svg xmlns="http://www.w3.org/2000/svg" viewBox="0 0 32 32"><path d="M16 3.594l-.72.687-7 7 1.44 1.44L15 7.436V24h2V7.437l5.28 5.282 1.44-1.44-7-7-.72-.686zM7 26v2h18v-2H7z"/></svg>
